src/next/cmd/ru/sc_underlinedouble.svg

<svg height="16" viewBox="0 0 4.2333333 4.2333335" width="16" xmlns="http://www.w3.org/2000/svg" xmlns:xlink="http://www.w3.org/1999/xlink"><linearGradient id="a" gradientTransform="matrix(1.4623427 0 0 1.4623425 -7.463503 -400.2617)" gradientUnits="userSpaceOnUse" x1="18.981823" x2="18.82987" y1="294.72055" y2="275.16284"><stop offset="0" stop-color="#555"/><stop offset="1"/></linearGradient><linearGradient id="b" gradientUnits="userSpaceOnUse" x1="19.05" x2="19.05" y1="-2.116667" y2="10.583334"><stop offset="0" stop-color="#3b3e22"/><stop offset="1" stop-color="#454545" stop-opacity="0"/></linearGradient><g stroke-width="1.48483" transform="matrix(.12008485 0 0 .12008485 .155777 -.254314)"><path d="m9.736175 12.729247q0 2.062543 1.250026 3.437572 1.312527 1.312527 3.562574 1.312527 1.375029 0 2.937561-.50001 1.625034-.500011 2.500052-1.000021l.875019-.437509v-7.8126626q0-2.4375508-.812517-3.3750703-.750016-.9375195-3.187567-1.1875247v-.9375195h13.250276v.9375195q-2.500052.3125065-3.250068 1.1875247-.750015.8125169-.750015 3.3750703v16.2503386q0 3.250067.750015 4.187587.750016.937519 3.250068 1.250026v.937519h-13.250276v-.937519q2.562554-.312507 3.250068-1.187525.750016-.875018.750016-4.250088v-6.812642q-3.500073 2.187545-7.812663 2.187545-1.250026 0-2.562553-.250005-1.3125277-.312506-2.7500576-.937519-1.4375299-.687515-2.3750494-2.062543-.8750182-1.375029-.8750182-3.250068v-5.1251066q-.0625013-2.6250547-.812517-3.4375716-.7500156-.8125169-3.1875663-1.1250234v-.9375195h13.2502755v.9375195q-2.43755.3125065-3.250067 1.1875247-.750016.8125169-.750016 3.3750703z" fill="url(#a)" transform="scale(1.0525265 .95009484)"/><path d="m1.4350545 2.6463496c1.2690615.2115113 2.2810303.5048146 2.861324 1.0722861.7339259.7177085.9661594 1.8994552 1.0113079 3.611149a.58557282.52858499 0 0 1 0 .01292v4.8694693c0 1.103121.2798223 2.02018.8268229 2.798279.2067957.272739.4312566.518189.6723103.741556a30.428195 12.186411 0 0 0 4.5470094.153479c-.06938-.05594-.137373-.113328-.203606-.173115a.58557282.52858499 0 0 1 -.02067-.01705c-.975137-.968265-1.4676104-2.208831-1.4676104-3.622005v-4.7506142c0-1.6746733.2113301-2.846518.9456784-3.5646403a.58557282.52858499 0 0 1 0-.00156c.610725-.593697 1.655852-.9099106 2.955892-1.1301638zm17.2475255 0c1.272774.2013376 2.298385.5167119 2.867526 1.1539347.728185.7654033.992704 1.9459139.992704 3.5424195v7.4228022a.58557282.52858499 0 0 1 -.110071.307475 30.428195 12.186411 0 0 0 4.464326-.886767v-6.8435102c0-1.6693727.212827-2.8366231.941548-3.5553386.584591-.610217 1.628264-.9235935 2.945556-1.1410156z" fill="url(#b)"/></g><g fill="#010101" stroke-width=".033073"><rect height=".264583" rx=".059009" ry=".075903" width="4.233333" y="3.96875"/><rect height=".264583" rx=".059009" ry=".075903" width="4.233333" y="3.439583"/></g></svg>

<?xml version="1.0" encoding="UTF-8" standalone="no"?>
<svg
   xmlns:dc="http://purl.org/dc/elements/1.1/"
   xmlns:cc="http://creativecommons.org/ns#"
   xmlns:rdf="http://www.w3.org/1999/02/22-rdf-syntax-ns#"
   xmlns:svg="http://www.w3.org/2000/svg"
   xmlns="http://www.w3.org/2000/svg"
   xmlns:xlink="http://www.w3.org/1999/xlink"
   xmlns:sodipodi="http://sodipodi.sourceforge.net/DTD/sodipodi-0.dtd"
   xmlns:inkscape="http://www.inkscape.org/namespaces/inkscape"
   height="16"
   viewBox="0 0 4.2333333 4.2333335"
   width="16"
   version="1.1"
   id="svg20"
   sodipodi:docname="sc_underlinedouble.svg"
   inkscape:version="0.92.4 (unknown)"
   inkscape:export-filename="/home/rizmut/Dokumen/Rizmut/Github/libreoffice-style-karasa-jaga/build/next/cmd/ru/sc_underlinedouble.png"
   inkscape:export-xdpi="96"
   inkscape:export-ydpi="96">
  <metadata
     id="metadata26">
    <rdf:RDF>
      <cc:Work
         rdf:about="">
        <dc:format>image/svg+xml</dc:format>
        <dc:type
           rdf:resource="http://purl.org/dc/dcmitype/StillImage" />
        <dc:title></dc:title>
      </cc:Work>
    </rdf:RDF>
  </metadata>
  <defs
     id="defs24">
    <linearGradient
       inkscape:collect="always"
       xlink:href="#a-5"
       id="linearGradient831"
       gradientUnits="userSpaceOnUse"
       gradientTransform="matrix(1.4623427,0,0,1.4623425,-7.4635034,-400.2617)"
       x1="18.981823"
       y1="294.72055"
       x2="18.82987"
       y2="275.16284" />
    <linearGradient
       id="a-5"
       gradientUnits="userSpaceOnUse"
       x1="18.981823"
       x2="20.202982"
       y1="294.72055"
       y2="266.63391"
       gradientTransform="matrix(0.95009481,0,0,0.95009481,1.1979225,-250.11112)">
      <stop
         offset="0"
         stop-color="#555"
         id="stop2-6" />
      <stop
         offset="1"
         id="stop4-2" />
    </linearGradient>
    <linearGradient
       inkscape:collect="always"
       xlink:href="#a-5"
       id="linearGradient868"
       gradientUnits="userSpaceOnUse"
       gradientTransform="matrix(1.4623427,0,0,1.4623425,-7.4635035,-400.26169)"
       x1="18.981823"
       y1="294.72055"
       x2="18.82987"
       y2="275.16284" />
    <linearGradient
       gradientTransform="scale(0.26458334)"
       inkscape:collect="always"
       xlink:href="#b"
       id="linearGradient854"
       x1="72"
       y1="-8"
       x2="72"
       y2="40"
       gradientUnits="userSpaceOnUse" />
    <linearGradient
       id="linearGradient883"
       gradientUnits="userSpaceOnUse"
       x1="35.404884"
       x2="54.657333"
       y1="7.3243251"
       y2="81.814293"
       gradientTransform="scale(0.26458333)">
      <stop
         offset="0"
         stop-color="#3b3e22"
         id="stop7-9" />
      <stop
         offset="1"
         stop-color="#454545"
         stop-opacity="0"
         id="stop9-1" />
    </linearGradient>
    <linearGradient
       inkscape:collect="always"
       xlink:href="#a-5"
       id="linearGradient852"
       gradientUnits="userSpaceOnUse"
       gradientTransform="matrix(1.4623427,0,0,1.4623425,-7.4635034,-400.2617)"
       x1="18.981823"
       y1="294.72055"
       x2="18.82987"
       y2="275.16284" />
  </defs>
  <sodipodi:namedview
     pagecolor="#ffffff"
     bordercolor="#666666"
     borderopacity="1"
     objecttolerance="10"
     gridtolerance="10"
     guidetolerance="10"
     inkscape:pageopacity="0"
     inkscape:pageshadow="2"
     inkscape:window-width="1366"
     inkscape:window-height="706"
     id="namedview22"
     showgrid="true"
     inkscape:zoom="14.75"
     inkscape:cx="21.834374"
     inkscape:cy="3.8872923"
     inkscape:window-x="0"
     inkscape:window-y="0"
     inkscape:window-maximized="1"
     inkscape:current-layer="g850">
    <inkscape:grid
       type="xygrid"
       id="grid893" />
  </sodipodi:namedview>
  <linearGradient
     id="a"
     gradientUnits="userSpaceOnUse"
     x1="18.981823"
     x2="20.202982"
     y1="294.72055"
     y2="266.63391"
     gradientTransform="matrix(0.93199686,0,0,0.93199687,1.1751038,-247.51751)">
    <stop
       offset="0"
       stop-color="#555"
       id="stop2" />
    <stop
       offset="1"
       id="stop4" />
  </linearGradient>
  <linearGradient
     id="b"
     gradientUnits="userSpaceOnUse"
     x1="35.404884"
     x2="54.657333"
     y1="7.3243251"
     y2="81.814293"
     gradientTransform="scale(0.26458333)">
    <stop
       offset="0"
       stop-color="#3b3e22"
       id="stop7" />
    <stop
       offset="1"
       stop-color="#454545"
       stop-opacity="0"
       id="stop9" />
  </linearGradient>
  <g
     id="g850"
     transform="scale(0.125)">
    <g
       transform="matrix(0.96067883,0,0,0.96067883,1.2462159,-2.0345149)"
       id="g891">
      <g
         id="text829"
         style="font-size:59.39325333px;font-family:sans-serif;letter-spacing:0;word-spacing:0;fill:url(#linearGradient831);stroke-width:1.48483038"
         transform="scale(1.0525265,0.95009484)"
         aria-label="ч">
        <path
           id="path837"
           style="font-style:normal;font-variant:normal;font-weight:normal;font-stretch:normal;font-size:62.50130081px;font-family:FreeSerif;-inkscape-font-specification:FreeSerif;fill:url(#linearGradient852);stroke-width:1.48483038"
           d="m 9.736175,12.729247 q 0,2.062543 1.250026,3.437572 1.312527,1.312527 3.562574,1.312527 1.375029,0 2.937561,-0.50001 1.625034,-0.500011 2.500052,-1.000021 l 0.875019,-0.437509 V 7.7291434 q 0,-2.4375508 -0.812517,-3.3750703 Q 19.298874,3.4165536 16.861323,3.1665484 V 2.2290289 H 30.111599 V 3.1665484 Q 27.611547,3.4790549 26.861531,4.3540731 26.111516,5.16659 26.111516,7.7291434 V 23.979482 q 0,3.250067 0.750015,4.187587 0.750016,0.937519 3.250068,1.250026 v 0.937519 H 16.861323 v -0.937519 q 2.562554,-0.312507 3.250068,-1.187525 0.750016,-0.875018 0.750016,-4.250088 V 17.16684 q -3.500073,2.187545 -7.812663,2.187545 -1.250026,0 -2.562553,-0.250005 Q 9.1736633,18.791874 7.7361334,18.166861 6.2986035,17.479346 5.361084,16.104318 4.4860658,14.729289 4.4860658,12.85425 V 7.7291434 Q 4.4235645,5.1040887 3.6735488,4.2915718 2.9235332,3.4790549 0.4859825,3.1665484 V 2.2290289 H 13.736258 V 3.1665484 Q 11.298708,3.4790549 10.486191,4.3540731 9.736175,5.16659 9.736175,7.7291434 Z"
           inkscape:connector-curvature="0" />
      </g>
      <path
         inkscape:connector-curvature="0"
         style="font-size:59.39325333px;font-family:sans-serif;letter-spacing:0;word-spacing:0;fill:url(#linearGradient854);fill-opacity:1;stroke-width:1.48483014"
         d="m 1.4350545,2.6463496 c 1.2690615,0.2115113 2.2810303,0.5048146 2.861324,1.0722861 0.7339259,0.7177085 0.9661594,1.8994552 1.0113079,3.611149 a 0.58557282,0.52858499 0 0 1 0,0.01292 v 4.8694693 c 0,1.103121 0.2798223,2.02018 0.8268229,2.798279 0.2067957,0.272739 0.4312566,0.518189 0.6723103,0.741556 a 30.428195,12.186411 0 0 0 4.5470094,0.153479 c -0.06938,-0.05594 -0.137373,-0.113328 -0.203606,-0.173115 a 0.58557282,0.52858499 0 0 1 -0.02067,-0.01705 C 10.154416,14.747058 9.6619426,13.506492 9.6619426,12.093318 V 7.3427038 c 0,-1.6746733 0.2113301,-2.846518 0.9456784,-3.5646403 a 0.58557282,0.52858499 0 0 1 0,-0.00156 c 0.610725,-0.593697 1.655852,-0.9099106 2.955892,-1.1301638 z m 17.2475255,0 c 1.272774,0.2013376 2.298385,0.5167119 2.867526,1.1539347 0.728185,0.7654033 0.992704,1.9459139 0.992704,3.5424195 v 7.4228022 a 0.58557282,0.52858499 0 0 1 -0.110071,0.307475 30.428195,12.186411 0 0 0 4.464326,-0.886767 V 7.3427038 c 0,-1.6693727 0.212827,-2.8366231 0.941548,-3.5553386 0.584591,-0.610217 1.628264,-0.9235935 2.945556,-1.1410156 z"
         id="text841" />
    </g>
    <g
       id="g17"
       style="fill:#010101"
       transform="scale(0.26458334)">
      <rect
         id="rect13"
         y="120"
         width="128"
         ry="2.2950201"
         rx="1.78422"
         height="8"
         x="0" />
      <rect
         id="rect15"
         y="104"
         width="128"
         ry="2.2950201"
         rx="1.78422"
         height="8"
         x="0" />
    </g>
  </g>
</svg>
